assets/img/braze_icons/shield-off.svg

<svg fill="none" height="24" viewBox="0 0 24 24" width="24" xmlns="http://www.w3.org/2000/svg"><g fill="#801ed7"><path clip-rule="evenodd" d="m3.70711 2.29289c-.39053-.39052-1.02369-.39052-1.41422 0-.39052.39053-.39052 1.02369 0 1.41422l.99772.99772c-.1863.31802-.29061.6859-.29061 1.07141v6.22366c0 2.8267 1.53729 5.1832 3.19906 6.9144 1.6729 1.7428 3.58694 2.9738 4.59904 3.5643l.041.024c.1847.1084.4244.2492.7416.3172.2595.0557.5794.0557.8388 0 .3172-.0681.5576-.2093.7428-.318l.0413-.0242c.9782-.5708 2.8104-1.7465 4.449-3.4108l2.6403 2.6403c.3905.3905 1.0237.3905 1.4142 0s.3905-1.0237 0-1.4142z" fill-rule="evenodd"/><path d="m20.0529 15.8102c.5754-1.1441.9471-2.4204.9471-3.8103l.0002-4.92191c.0009-.65944.0017-1.23855-.1963-1.75906-.1733-.45535-.4549-.86164-.8204-1.18376-.4178-.36823-.9603-.57078-1.5781-.80143l-5.4925-2.05952-.0432-.01632c-.1616-.06102-.365-.13788-.5836-.16947-.1897-.02741-.3824-.02741-.5721 0-.2186.03159-.4221.10845-.5836.16947l-.0433.01632-4.05116 1.51908z"/></g></svg>

<svg width="24" height="24" viewBox="0 0 24 24" fill="none" xmlns="http://www.w3.org/2000/svg">
<path fill-rule="evenodd" clip-rule="evenodd" d="M3.70711 2.29289C3.31658 1.90237 2.68342 1.90237 2.29289 2.29289C1.90237 2.68342 1.90237 3.31658 2.29289 3.70711L3.29061 4.70483C3.10431 5.02285 3 5.39073 3 5.77624V11.9999C3 14.8266 4.53729 17.1831 6.19906 18.9143C7.87196 20.6571 9.786 21.8881 10.7981 22.4786L10.8391 22.5026C11.0238 22.611 11.2635 22.7518 11.5807 22.8198C11.8402 22.8755 12.1601 22.8755 12.4195 22.8198C12.7367 22.7517 12.9771 22.6105 13.1623 22.5018L13.2036 22.4776C14.1818 21.9068 16.014 20.7311 17.6526 19.0668L20.2929 21.7071C20.6834 22.0976 21.3166 22.0976 21.7071 21.7071C22.0976 21.3166 22.0976 20.6834 21.7071 20.2929L3.70711 2.29289Z" fill="#801ED7"/>
<path d="M20.0529 15.8102C20.6283 14.6661 21 13.3898 21 11.9999L21.0002 7.07799C21.0011 6.41855 21.0019 5.83944 20.8039 5.31893C20.6306 4.86358 20.349 4.45729 19.9835 4.13517C19.5657 3.76694 19.0232 3.56439 18.4054 3.33374L12.9129 1.27422L12.8697 1.2579C12.7081 1.19688 12.5047 1.12002 12.2861 1.08843C12.0964 1.06102 11.9037 1.06102 11.714 1.08843C11.4954 1.12002 11.2919 1.19688 11.1304 1.2579L11.0871 1.27422L7.03594 2.7933L20.0529 15.8102Z" fill="#801ED7"/>
</svg>
